X:987
T:Polska
T:efter Pelle Fors
R:Polska
O:Vikbolandet, Östergötland
S:efter Pelle Fors
B:Låtar efter Pelle Fors
Z:Björn Ek 2009-01-10
M:3/4
L:1/16
K:G
%
|:D3G G2B2 ((5:4BcBAB)|G3B B2d2 (de)dB|(cd)ec A2A2 (GF)EF|(GF)GB (AG)FE (DC)B,D|
D3G G2B2 ((5:4BcBAB)|G3B B2d2 dedB|cdec A2A2 GFEF|D2EF G8:|
%
|:((5:4gagfg) e4 c4|c2e2 e2g2 gagf|f2d2 dBGB dedc|A2A2 GFEF GFGB|
AGFE DCB,A, G,2g2|e2e2 cAce eggf|f2d2 dBGB dedc|A2A2GFEF D2EF|G12:|
%(:musicend:)

(:music:)
